astro/public/img/icons/magic-links.svg

<?xml version="1.0" encoding="UTF-8"?>
<svg width="70px" height="70px" viewBox="0 0 70 70" version="1.1" xmlns="http://www.w3.org/2000/svg" xmlns:xlink="http://www.w3.org/1999/xlink">
    <title>magic-link2</title>
    <defs>
        <linearGradient x1="100%" y1="100%" x2="0%" y2="1.41638472e-14%" id="linearGradient-1">
            <stop stop-color="#A4AEBE" offset="0%"></stop>
            <stop stop-color="#2D53F5" offset="100%"></stop>
        </linearGradient>
    </defs>
    <g id="magic-link2" stroke="none" stroke-width="1" fill="none" fill-rule="evenodd">
        <g id="g2632" transform="translate(35.4999, 35.5) rotate(-180) translate(-35.4999, -35.5)translate(6.1913, 6.1914)">
            <g id="g2638" stroke="url(#linearGradient-1)" stroke-linecap="round" stroke-linejoin="round" stroke-width="2.39999994">
                <path d="M33.5255404,23.3596224 C33.6365795,22.654429 34.5802924,22.5043118 34.9025678,23.1404036 L38.6454896,30.5266458 C38.7897689,30.8110345 39.0996537,30.9698489 39.4132318,30.919929 L47.5563744,29.6232024 C48.2577553,29.5114485 48.6914271,30.3673548 48.1892494,30.8721536 L42.3595795,36.7338724 C42.1349994,36.959763 42.0805521,37.3051517 42.2247123,37.5896595 L45.9676342,44.9759017 C46.2900287,45.6119935 45.6145014,46.2913333 44.9818646,45.9671517 L37.6357729,42.2036185 C37.3528139,42.0587435 37.0093314,42.113429 36.7847514,42.3392005 L30.9549623,48.2009192 C30.4527846,48.7058372 29.6016439,48.2696634 29.712683,47.5645892 L31.0024994,39.3767688 C31.0521811,39.0614036 30.8942006,38.7497317 30.6112416,38.6047376 L23.2652689,34.8414427 C22.6327514,34.517261 22.7821537,33.5684251 23.4834154,33.4566712 L31.626558,32.1600638 C31.9401361,32.1100247 32.1860424,31.8628079 32.235724,31.5473235 Z M0.698223633,0.697776855 C1.62930762,-0.232592285 3.13858105,-0.232592285 4.0695459,0.697776855 L32.4008779,29.808564 L29.1936826,32.546687 L0.698223633,4.06719287 C-0.232741211,3.13670459 -0.232741211,1.62838428 0.698223633,0.697776855 Z M20.9119199,45.3716034 L18.2995234,46.7099101 M45.3754219,20.7740683 L46.7065801,18.1473749 M49.9792062,50.0007528 C51.3613566,51.3904091 52.7433879,52.7800653 54.1256574,54.1697216 M39.9632564,55.1320562 L40.8872564,58.0436147 M27.4349883,53.3637948 C26.5476289,55.1149237 25.6602695,56.8660526 24.772791,58.6171815 M53.3924064,27.2229001 C55.1340041,26.330656 56.8756018,25.4382927 58.6171994,24.5461677 M55.0825949,39.9298792 L57.978427,40.8589192" id="Combined-Shape"></path>
            </g>
            <g id="g2642" transform="translate(49.9792, 50.0008)"></g>
            <g id="g2646" transform="translate(39.9633, 55.1321)"></g>
            <g id="g2650" transform="translate(24.7728, 53.3638)"></g>
            <g id="g2654" transform="translate(18.2995, 45.3716)"></g>
            <g id="g2658" transform="translate(45.3754, 18.1474)"></g>
            <g id="g2662" transform="translate(53.3924, 24.5462)"></g>
            <g id="g2666" transform="translate(55.0826, 39.9299)"></g>
            <g id="g2670"></g>
        </g>
    </g>
</svg>

<svg xmlns="http://www.w3.org/2000/svg" width="70" height="70"><defs><linearGradient id="a" x1="100%" x2="0%" y1="100%" y2="0%"><stop offset="0%" stop-color="#A4AEBE"/><stop offset="100%" stop-color="#2D53F5"/></linearGradient></defs><path fill="none" stroke="url(#a)" stroke-linecap="round" stroke-linejoin="round" stroke-width="2.4" d="M33.526 23.36c.11-.706 1.054-.856 1.377-.22l3.742 7.387a.732.732 0 0 0 .768.393l8.143-1.297c.702-.112 1.135.744.633 1.25l-5.83 5.86a.74.74 0 0 0-.134.857l3.743 7.386c.322.636-.353 1.315-.986.991l-7.346-3.763a.73.73 0 0 0-.851.135l-5.83 5.862c-.502.505-1.353.069-1.242-.636l1.29-8.188a.738.738 0 0 0-.392-.772l-7.346-3.764c-.632-.324-.483-1.273.218-1.384l8.144-1.297a.735.735 0 0 0 .609-.613ZM.698.698c.931-.93 2.44-.93 3.372 0l28.33 29.11-3.206 2.739L.698 4.067a2.382 2.382 0 0 1 0-3.37Zm20.214 44.674L18.3 46.71m27.075-25.936 1.332-2.627m3.272 31.854 4.147 4.169m-14.163.962.924 2.912m-13.452-4.68-2.662 5.253m28.62-31.394 5.224-2.677M55.083 39.93l2.895.929" transform="rotate(-180 32.404 32.404)"/></svg>
